X:180
T: Jim Ward's Jig
M: 6/8
L: 1/8
R: Jig
K: G
D|G3 G2 B|AGE GED|G2 G AGE|GED D2 D|
G3 G2 B|AGE GAB|c2 A BGE|DED D2 :|
B|c2 A BAG|ABA AGE|c2 A BGE|DED D2 B|
c2 A BAG|ABA ABc|dcA AGE|GED D2 :|
